svgs/google_play_games.svg

<svg width="192" height="192" viewBox="0 0 192 192" fill="none" xmlns="http://www.w3.org/2000/svg">
<path d="M60.5612 87.7971C64.9745 87.7971 68.5522 84.2194 68.5522 79.806C68.5522 75.3926 64.9745 71.8149 60.5612 71.8149C56.1478 71.8149 52.5701 75.3926 52.5701 79.806C52.5701 84.2194 56.1478 87.7971 60.5612 87.7971Z" fill="black"/>
<path d="M76.756 103.581C81.1693 103.581 84.7471 100.004 84.7471 95.5903C84.7471 91.1769 81.1693 87.5992 76.756 87.5992C72.3426 87.5992 68.7649 91.1769 68.7649 95.5903C68.7649 100.004 72.3426 103.581 76.756 103.581Z" fill="black"/>
<path d="M44.8522 103.581C49.2655 103.581 52.8433 100.004 52.8433 95.5903C52.8433 91.1769 49.2655 87.5992 44.8522 87.5992C40.4388 87.5992 36.8611 91.1769 36.8611 95.5903C36.8611 100.004 40.4388 103.581 44.8522 103.581Z" fill="black"/>
<path d="M60.4054 119.555C64.8187 119.555 68.3965 115.977 68.3965 111.564C68.3965 107.151 64.8187 103.573 60.4054 103.573C55.992 103.573 52.4143 107.151 52.4143 111.564C52.4143 115.977 55.992 119.555 60.4054 119.555Z" fill="black"/>
<path d="M30.4138 62.1642H72.7412C72.7412 62.1642 98.4027 62.729 102.069 83.06L111.092 131.064" stroke="black" stroke-width="12" stroke-linecap="round" stroke-linejoin="round"/>
<path d="M31.093 129.045L60.5045 129.145L81.7405 150.111" stroke="black" stroke-width="12" stroke-linecap="round" stroke-linejoin="round"/>
<path d="M154.673 109.933L52.912 167.883C42.2445 173.954 29 166.243 29 153.951V38.0494C29 25.7571 42.2445 18.0457 52.912 24.1168L154.673 82.0674C165.46 88.2086 165.46 103.781 154.673 109.923V109.933Z" stroke="black" stroke-width="12" stroke-miterlimit="10"/>
</svg>

<svg xmlns="http://www.w3.org/2000/svg" width="192" height="192" fill="none" viewBox="0 0 192 192"><path fill="#000" d="M60.561 87.797a7.991 7.991 0 1 0 0-15.982 7.991 7.991 0 0 0 0 15.982ZM76.756 103.581a7.99 7.99 0 1 0 0-15.982 7.991 7.991 0 1 0 0 15.982ZM44.852 103.581a7.99 7.99 0 1 0 0-15.982 7.991 7.991 0 1 0 0 15.982ZM60.405 119.555a7.991 7.991 0 1 0 0-15.983 7.991 7.991 0 0 0 0 15.983Z"/><path stroke="#000" stroke-linecap="round" stroke-linejoin="round" stroke-width="12" d="M30.414 62.164H72.74s25.662.565 29.328 20.896l9.023 48.004M31.093 129.045l29.412.1 21.235 20.966"/><path stroke="#000" stroke-miterlimit="10" stroke-width="12" d="m154.673 109.933-101.761 57.95C42.245 173.954 29 166.243 29 153.951V38.049c0-12.292 13.245-20.003 23.912-13.932l101.761 57.95c10.787 6.142 10.787 21.714 0 27.856v.01Z"/></svg>
